svg/fluentui-system-icons/ic_fluent_text_wrap_24_regular.svg

<svg width="24" height="24" viewBox="0 0 24 24" fill="none" xmlns="http://www.w3.org/2000/svg">
<path d="M2.75 5C2.33579 5 2 5.33579 2 5.75C2 6.16421 2.33579 6.5 2.75 6.5H21.25C21.6642 6.5 22 6.16421 22 5.75C22 5.33579 21.6642 5 21.25 5H2.75ZM2.75 11.5C2.33579 11.5 2 11.8358 2 12.25C2 12.6642 2.33579 13 2.75 13H19C20.3807 13 21.5 14.1193 21.5 15.5C21.5 16.8807 20.3807 18 19 18H14.5607L15.2803 17.2803C15.5732 16.9874 15.5732 16.5126 15.2803 16.2197C14.9874 15.9268 14.5126 15.9268 14.2197 16.2197L12.2197 18.2197C11.9268 18.5126 11.9268 18.9874 12.2197 19.2803L14.2197 21.2803C14.5126 21.5732 14.9874 21.5732 15.2803 21.2803C15.5732 20.9874 15.5732 20.5126 15.2803 20.2197L14.5607 19.5H19C21.2091 19.5 23 17.7091 23 15.5C23 13.2909 21.2091 11.5 19 11.5H2.75ZM2 18.75C2 18.3358 2.33579 18 2.75 18H9.25C9.66421 18 10 18.3358 10 18.75C10 19.1642 9.66421 19.5 9.25 19.5H2.75C2.33579 19.5 2 19.1642 2 18.75Z" fill="#212121"/>
</svg>

<svg xmlns="http://www.w3.org/2000/svg" width="24" height="24"><path d="M2.75 5a.75.75 0 0 0 0 1.5h18.5a.75.75 0 0 0 0-1.5H2.75Zm0 6.5a.75.75 0 0 0 0 1.5H19a2.5 2.5 0 0 1 0 5h-4.44l.72-.72a.75.75 0 1 0-1.06-1.06l-2 2a.75.75 0 0 0 0 1.06l2 2a.75.75 0 1 0 1.06-1.06l-.72-.72H19a4 4 0 0 0 0-8H2.75ZM2 18.75a.75.75 0 0 1 .75-.75h6.5a.75.75 0 0 1 0 1.5h-6.5a.75.75 0 0 1-.75-.75Z"/></svg>
